specification/sources/images/hand_aim_pose.svg

<svg xmlns="http://www.w3.org/2000/svg" width="1326" height="939" style="background-color:#fff" viewBox="-0.5 -0.5 1326 939"><g stroke-miterlimit="10"><path fill="none" stroke="gray" stroke-width="7" d="M444 931q70-136 69-158t14.5-50.5 2-43.5-49.5 5.5-68 93-30-10T415 609t83-122 33-69.5-61.5 1T352 564t-33-5 71-157 22-55-32.5-22-64 57T222 569t-21.5 2 50-194.5-13-60.5-71 84-59 209-22 48 22-144.5 6-69.5T72 454.5 20.5 539t-7 146.5T18 922" pointer-events="stroke"/><path fill="none" stroke="red" stroke-width="7" d="m311 723 117.48 9.57" pointer-events="stroke"/><path fill="red" stroke="red" stroke-width="7" d="m438.2 733.36-13.49 5.43 3.77-6.22-2.71-6.74z" pointer-events="all"/><path fill="none" stroke="#3f3" stroke-width="7" d="m315 721-14.19-87.65" pointer-events="stroke"/><path fill="#3f3" stroke="#3f3" stroke-width="7" d="m299.25 623.73 8.49 11.79-6.93-2.17-5.9 4.25z" pointer-events="all"/><path fill="none" stroke="#00f" stroke-width="7" d="m314 724-35.58 90.64" pointer-events="stroke"/><path fill="#00f" stroke="#00f" stroke-width="7" d="m274.86 823.72-1.3-14.48 4.86 5.4 7.24-.65z" pointer-events="all"/><path fill="none" stroke="#b8b8b8" stroke-dasharray="10 10" stroke-width="10" d="M321 715.93 524 145" pointer-events="stroke"/><path fill="none" stroke="gray" stroke-width="7" d="M1304 935q-5-161 9-225t6-172-43-115.5-35 45.5 3.5 96-9.5 83-18.5 18-20-82-35-125.5-47-109.5-55-36.5 12 104.5 71 228.5-13-45.5-59.5-217.5-42.5-67T972 300t11 116 53.5 203-44.5-18.5T907.5 444t-64-48.5T788 410t24 53 75.5 130 32 167.5-19 44-35-40-28.5-44-39-40-48.5-10.5-3.5 31.5 18.5 60T858 933" pointer-events="stroke"/><path fill="none" stroke="red" stroke-width="7" d="m990 736 118.47-8.71" pointer-events="stroke"/><path fill="red" stroke="red" stroke-width="7" d="m1118.2 726.57-12.49 7.44 2.76-6.72-3.72-6.25z" pointer-events="all"/><path fill="none" stroke="#3f3" stroke-width="7" d="m994 734 10.96-93.54" pointer-events="stroke"/><path fill="#3f3" stroke="#3f3" stroke-width="7" d="m1006.1 630.77 4.94 13.67-6.07-3.98-6.84 2.47z" pointer-events="all"/><path fill="none" stroke="#00f" stroke-width="7" d="m993 737 35.08 81.85" pointer-events="stroke"/><path fill="#00f" stroke="#00f" stroke-width="7" d="m1031.9 827.81-11.1-9.39 7.26.43 4.69-5.55z" pointer-events="all"/><path fill="none" stroke="#b5b5b5" stroke-dasharray="10 10" stroke-width="10" d="M993 736 676 5" pointer-events="stroke"/><path fill="none" stroke="#4d4d4d" stroke-dasharray="10 10" stroke-width="10" d="M406 471 556 58m294 342L681 16" pointer-events="stroke"/></g></svg>

<?xml version="1.0" encoding="UTF-8"?>
<!DOCTYPE svg PUBLIC "-//W3C//DTD SVG 1.1//EN" "http://www.w3.org/Graphics/SVG/1.1/DTD/svg11.dtd">
<svg xmlns="http://www.w3.org/2000/svg" xmlns:xlink="http://www.w3.org/1999/xlink" version="1.1" width="1326px" height="939px" viewBox="-0.5 -0.5 1326 939" style="background-color: rgb(255, 255, 255);"><defs/><g><path d="M 444 931 Q 514 795 513 773 Q 512 751 527.5 722.5 Q 543 694 529.5 679 Q 516 664 480 684.5 Q 444 705 412 777.5 Q 380 850 382 767.5 Q 384 685 415 609 Q 446 533 498 487 Q 550 441 531 417.5 Q 512 394 469.5 418.5 Q 427 443 352 564 Q 277 685 319 559 Q 361 433 390 402 Q 419 371 412 347 Q 405 323 379.5 325 Q 354 327 315.5 382 Q 277 437 222 569 Q 167 701 200.5 571 Q 234 441 250.5 376.5 Q 267 312 237.5 316 Q 208 320 166.5 400 Q 125 480 107.5 609 Q 90 738 85.5 657 Q 81 576 107.5 512.5 Q 134 449 113.5 443 Q 93 437 72 454.5 Q 51 472 20.5 539 Q -10 606 13.5 685.5 Q 37 765 18 922" fill="none" stroke="#808080" stroke-width="7" stroke-miterlimit="10" pointer-events="stroke"/><path d="M 311 723 L 428.48 732.57" fill="none" stroke="#ff0000" stroke-width="7" stroke-miterlimit="10" pointer-events="stroke"/><path d="M 438.2 733.36 L 424.71 738.79 L 428.48 732.57 L 425.77 725.83 Z" fill="#ff0000" stroke="#ff0000" stroke-width="7" stroke-miterlimit="10" pointer-events="all"/><path d="M 315 721 L 300.81 633.35" fill="none" stroke="#33ff33" stroke-width="7" stroke-miterlimit="10" pointer-events="stroke"/><path d="M 299.25 623.73 L 307.74 635.52 L 300.81 633.35 L 294.91 637.6 Z" fill="#33ff33" stroke="#33ff33" stroke-width="7" stroke-miterlimit="10" pointer-events="all"/><path d="M 314 724 L 278.42 814.64" fill="none" stroke="#0000ff" stroke-width="7" stroke-miterlimit="10" pointer-events="stroke"/><path d="M 274.86 823.72 L 273.56 809.24 L 278.42 814.64 L 285.66 813.99 Z" fill="#0000ff" stroke="#0000ff" stroke-width="7" stroke-miterlimit="10" pointer-events="all"/><path d="M 321 715.93 L 524 145" fill="none" stroke="#b8b8b8" stroke-width="10" stroke-miterlimit="10" stroke-dasharray="10 10" pointer-events="stroke"/><path d="M 1304 935 Q 1299 774 1313 710 Q 1327 646 1319 538 Q 1311 430 1276 422.5 Q 1241 415 1241 468 Q 1241 521 1244.5 564 Q 1248 607 1235 647 Q 1222 687 1216.5 665 Q 1211 643 1196.5 583 Q 1182 523 1161.5 457.5 Q 1141 392 1114.5 348 Q 1088 304 1059.5 311.5 Q 1031 319 1071.5 416 Q 1112 513 1142.5 644.5 Q 1173 776 1129.5 599 Q 1086 422 1070 381.5 Q 1054 341 1027.5 314.5 Q 1001 288 972 300 Q 943 312 983 416 Q 1023 520 1036.5 619 Q 1050 718 992 600.5 Q 934 483 907.5 444 Q 881 405 843.5 395.5 Q 806 386 788 410 Q 770 434 812 463 Q 854 492 887.5 593 Q 921 694 919.5 760.5 Q 918 827 900.5 804.5 Q 883 782 865.5 764.5 Q 848 747 837 720.5 Q 826 694 798 680.5 Q 770 667 749.5 670 Q 729 673 746 701.5 Q 763 730 764.5 761.5 Q 766 793 858 933" fill="none" stroke="#808080" stroke-width="7" stroke-miterlimit="10" pointer-events="stroke"/><path d="M 990 736 L 1108.47 727.29" fill="none" stroke="#ff0000" stroke-width="7" stroke-miterlimit="10" pointer-events="stroke"/><path d="M 1118.2 726.57 L 1105.71 734.01 L 1108.47 727.29 L 1104.75 721.04 Z" fill="#ff0000" stroke="#ff0000" stroke-width="7" stroke-miterlimit="10" pointer-events="all"/><path d="M 994 734 L 1004.96 640.46" fill="none" stroke="#33ff33" stroke-width="7" stroke-miterlimit="10" pointer-events="stroke"/><path d="M 1006.09 630.77 L 1011.03 644.44 L 1004.96 640.46 L 998.12 642.93 Z" fill="#33ff33" stroke="#33ff33" stroke-width="7" stroke-miterlimit="10" pointer-events="all"/><path d="M 993 737 L 1028.08 818.85" fill="none" stroke="#0000ff" stroke-width="7" stroke-miterlimit="10" pointer-events="stroke"/><path d="M 1031.92 827.81 L 1020.82 818.42 L 1028.08 818.85 L 1032.77 813.3 Z" fill="#0000ff" stroke="#0000ff" stroke-width="7" stroke-miterlimit="10" pointer-events="all"/><path d="M 993 736 L 676 5" fill="none" stroke="#b5b5b5" stroke-width="10" stroke-miterlimit="10" stroke-dasharray="10 10" pointer-events="stroke"/><path d="M 406 471 L 556 58" fill="none" stroke="#4d4d4d" stroke-width="10" stroke-miterlimit="10" stroke-dasharray="10 10" pointer-events="stroke"/><path d="M 850 400 L 681 16" fill="none" stroke="#4d4d4d" stroke-width="10" stroke-miterlimit="10" stroke-dasharray="10 10" pointer-events="stroke"/></g></svg>
